eotimeseriesviewer/ui/icons/speclib_add.svg

<?xml version="1.0" encoding="UTF-8" standalone="no"?>
<svg
   xmlns:dc="http://purl.org/dc/elements/1.1/"
   xmlns:cc="http://creativecommons.org/ns#"
   xmlns:rdf="http://www.w3.org/1999/02/22-rdf-syntax-ns#"
   xmlns:svg="http://www.w3.org/2000/svg"
   xmlns="http://www.w3.org/2000/svg"
   xmlns:sodipodi="http://sodipodi.sourceforge.net/DTD/sodipodi-0.dtd"
   xmlns:inkscape="http://www.inkscape.org/namespaces/inkscape"
   version="1.1"
   id="Capa_1"
   x="0px"
   y="0px"
   viewBox="0 0 65 65"
   xml:space="preserve"
   inkscape:version="0.91 r13725"
   sodipodi:docname="speclib_add.svg"
   width="65"
   height="65"
   inkscape:export-filename="D:\Repositories\QGIS_Plugins\enmap-box\enmapbox\gui\ui\icons\speclib_add.png"
   inkscape:export-xdpi="90"
   inkscape:export-ydpi="90"><metadata
     id="metadata65"><rdf:RDF><cc:Work
         rdf:about=""><dc:format>image/svg+xml</dc:format><dc:type
           rdf:resource="http://purl.org/dc/dcmitype/StillImage" /><dc:title></dc:title></cc:Work></rdf:RDF></metadata><defs
     id="defs63" /><sodipodi:namedview
     pagecolor="#ffffff"
     bordercolor="#666666"
     borderopacity="1"
     objecttolerance="10"
     gridtolerance="10"
     guidetolerance="10"
     inkscape:pageopacity="0"
     inkscape:pageshadow="2"
     inkscape:window-width="1280"
     inkscape:window-height="962"
     id="namedview61"
     showgrid="false"
     inkscape:zoom="4.4528302"
     inkscape:cx="28.600005"
     inkscape:cy="32.070552"
     inkscape:window-x="-8"
     inkscape:window-y="-8"
     inkscape:window-maximized="1"
     inkscape:current-layer="Capa_1" /><g
     id="g5"
     transform="matrix(0.89264024,0,0,0.89620652,-1.1893912,0.96087011)"
     style="fill:#ff3300;fill-opacity:1;stroke:#000000;stroke-opacity:1"><path
       style="fill:#ff3300;fill-opacity:1;stroke:#000000;stroke-opacity:1"
       d="m 26.5,41 c -13.255,0 -24,-3.806 -24,-8.5 l 0,12.5 0.045,0 c 0.731,4.461 11.175,8 23.955,8 12.78,0 23.224,-3.539 23.955,-8 l 0.045,0 0,-12.5 c 0,4.694 -10.745,8.5 -24,8.5 z"
       id="path7"
       inkscape:connector-curvature="0" /><path
       style="fill:#ff3300;fill-opacity:1;stroke:#000000;stroke-opacity:1"
       d="m 2.5,32 0,0.5 C 2.5,32.332 2.518,32.166 2.545,32 L 2.5,32 Z"
       id="path9"
       inkscape:connector-curvature="0" /><path
       style="fill:#ff3300;fill-opacity:1;stroke:#000000;stroke-opacity:1"
       d="m 50.455,32 c 0.027,0.166 0.045,0.332 0.045,0.5 l 0,-0.5 -0.045,0 z"
       id="path11"
       inkscape:connector-curvature="0" /></g><g
     id="g13"
     transform="matrix(0.89264024,0,0,0.89620652,-1.1893912,0.96087011)"
     style="fill:#73d216;stroke:#000000;stroke-opacity:1"><path
       style="fill:#73d216;stroke:#000000;stroke-opacity:1"
       d="m 26.5,29 c -13.255,0 -24,-3.806 -24,-8.5 l 0,12.5 0.045,0 c 0.731,4.461 11.175,8 23.955,8 12.78,0 23.224,-3.539 23.955,-8 l 0.045,0 0,-12.5 c 0,4.694 -10.745,8.5 -24,8.5 z"
       id="path15"
       inkscape:connector-curvature="0" /><path
       style="fill:#73d216;stroke:#000000;stroke-opacity:1"
       d="m 2.5,20 0,0.5 C 2.5,20.332 2.518,20.166 2.545,20 L 2.5,20 Z"
       id="path17"
       inkscape:connector-curvature="0" /><path
       style="fill:#73d216;stroke:#000000;stroke-opacity:1"
       d="m 50.455,20 c 0.027,0.166 0.045,0.332 0.045,0.5 l 0,-0.5 -0.045,0 z"
       id="path19"
       inkscape:connector-curvature="0" /></g><ellipse
     style="fill:#729fcf;stroke:#000000;stroke-width:0.89442158;stroke-opacity:1"
     cx="22.465576"
     cy="8.5786257"
     rx="21.423365"
     ry="7.6177564"
     id="ellipse21" /><g
     id="g23"
     transform="matrix(0.77265321,0,0,0.74162355,-3.2153222,9.0545447)"
     style="fill:#3465a4;fill-opacity:1"><path
       style="fill:#3465a4;fill-opacity:1;stroke:#000000;stroke-width:1.1815666;stroke-opacity:1"
       d="m 33.237288,9.6300025 c -15.313398,0 -27.7270132,-4.599317 -27.7270132,-10.27172821 l 0,15.10548271 0.051988,0 c 0.8445188,5.390844 12.9103902,9.667509 27.6750252,9.667509 14.764635,0 26.830507,-4.276665 27.675025,-9.667509 l 0.05199,0 0,-15.10548271 C 60.964301,5.0306855 48.550686,9.6300025 33.237288,9.6300025 Z"
       id="path25"
       inkscape:connector-curvature="0" /><path
       style="fill:#3465a4;fill-opacity:1"
       d="m 2.5,8 0,0.5 C 2.5,8.332 2.518,8.166 2.545,8 L 2.5,8 Z"
       id="path27"
       inkscape:connector-curvature="0" /><path
       style="fill:#3465a4;fill-opacity:1"
       d="M 50.455,8 C 50.482,8.166 50.5,8.332 50.5,8.5 l 0,-0.5 -0.045,0 z"
       id="path29"
       inkscape:connector-curvature="0" /></g><g
     id="g31"
     transform="translate(0,12)" /><g
     id="g33"
     transform="translate(0,12)" /><g
     id="g35"
     transform="translate(0,12)" /><g
     id="g37"
     transform="translate(0,12)" /><g
     id="g39"
     transform="translate(0,12)" /><g
     id="g41"
     transform="translate(0,12)" /><g
     id="g43"
     transform="translate(0,12)" /><g
     id="g45"
     transform="translate(0,12)" /><g
     id="g47"
     transform="translate(0,12)" /><g
     id="g49"
     transform="translate(0,12)" /><g
     id="g51"
     transform="translate(0,12)" /><g
     id="g53"
     transform="translate(0,12)" /><g
     id="g55"
     transform="translate(0,12)" /><g
     id="g57"
     transform="translate(0,12)" /><g
     id="g59"
     transform="translate(0,12)" /><g
     style="display:inline"
     id="g3772"
     transform="matrix(1.6141779,0,0,1.6141779,12.736769,12.834226)"><rect
       ry="2.6149368"
       inkscape:export-ydpi="120"
       inkscape:export-xdpi="120"
       y="19"
       x="19"
       height="13"
       width="13"
       id="rect3563"
       style="display:inline;fill:#5a8c5a;fill-opacity:1;stroke:#555753;stroke-width:0;stroke-linejoin:round;stroke-miterlimit:4;stroke-dasharray:none;stroke-opacity:1"
       inkscape:export-filename="C:\Program Files\QGIS-Dev\themes\gis-0.1\mActionAddOgrLayer.png"
       rx="2.6149371" /><path
       inkscape:connector-curvature="0"
       style="display:inline;overflow:visible;visibility:visible;fill:#ffffff;fill-opacity:1;fill-rule:evenodd;stroke:#ffffff;stroke-width:2.5999999;stroke-linecap:round;stroke-linejoin:round;stroke-miterlimit:4;stroke-dasharray:none;stroke-dashoffset:0;stroke-opacity:1;marker:none;enable-background:accumulate"
       d="m 21.6,25.499999 7.8,0"
       id="path3807"
       sodipodi:nodetypes="cc" /><path
       inkscape:connector-curvature="0"
       id="path3809"
       d="M 25.5,29.399999 25.5,21.6"
       style="display:inline;overflow:visible;visibility:visible;fill:#ffffff;fill-opacity:1;fill-rule:evenodd;stroke:#ffffff;stroke-width:2.5999999;stroke-linecap:round;stroke-linejoin:round;stroke-miterlimit:4;stroke-dasharray:none;stroke-dashoffset:0;stroke-opacity:1;marker:none;enable-background:accumulate"
       sodipodi:nodetypes="cc" /><path
       inkscape:connector-curvature="0"
       sodipodi:nodetypes="ccsssc"
       id="path6992"
       d="m 20.3,25.499999 10.4,0 c 0,0 0,0 0,-2.6 C 30.7,20.3 30.05,20.3 25.5,20.3 c -4.55,0 -5.2,0 -5.2,2.599999 0,2.6 0,2.6 0,2.6 z"
       style="display:inline;opacity:0.3;fill:#fcffff;fill-rule:evenodd;stroke:none;enable-background:new" /></g></svg>

<?xml version="1.0" encoding="UTF-8" standalone="no"?>
<svg
   xmlns:dc="http://purl.org/dc/elements/1.1/"
   xmlns:cc="http://creativecommons.org/ns#"
   xmlns:rdf="http://www.w3.org/1999/02/22-rdf-syntax-ns#"
   xmlns:svg="http://www.w3.org/2000/svg"
   xmlns="http://www.w3.org/2000/svg"
   xmlns:sodipodi="http://sodipodi.sourceforge.net/DTD/sodipodi-0.dtd"
   xmlns:inkscape="http://www.inkscape.org/namespaces/inkscape"
   version="1.1"
   id="Capa_1"
   x="0px"
   y="0px"
   viewBox="0 0 128 128"
   xml:space="preserve"
   inkscape:version="0.92.2 (5c3e80d, 2017-08-06)"
   sodipodi:docname="speclib_add.svg"
   width="128"
   height="128"
   inkscape:export-filename="D:\Repositories\QGIS_Plugins\enmap-box\enmapbox\gui\ui\icons\speclib_add.png"
   inkscape:export-xdpi="90"
   inkscape:export-ydpi="90"><metadata
     id="metadata65"><rdf:RDF><cc:Work
         rdf:about=""><dc:format>image/svg+xml</dc:format><dc:type
           rdf:resource="http://purl.org/dc/dcmitype/StillImage" /><dc:title></dc:title></cc:Work></rdf:RDF></metadata><defs
     id="defs63" /><sodipodi:namedview
     pagecolor="#ffffff"
     bordercolor="#666666"
     borderopacity="1"
     objecttolerance="10"
     gridtolerance="10"
     guidetolerance="10"
     inkscape:pageopacity="0"
     inkscape:pageshadow="2"
     inkscape:window-width="1920"
     inkscape:window-height="1017"
     id="namedview61"
     showgrid="false"
     inkscape:zoom="4.4528302"
     inkscape:cx="-38.5483"
     inkscape:cy="41.053603"
     inkscape:window-x="3832"
     inkscape:window-y="106"
     inkscape:window-maximized="1"
     inkscape:current-layer="Capa_1" /><g
     id="g31"
     transform="translate(0,75)" /><g
     id="g33"
     transform="translate(0,75)" /><g
     id="g35"
     transform="translate(0,75)" /><g
     id="g37"
     transform="translate(0,75)" /><g
     id="g39"
     transform="translate(0,75)" /><g
     id="g41"
     transform="translate(0,75)" /><g
     id="g43"
     transform="translate(0,75)" /><g
     id="g45"
     transform="translate(0,75)" /><g
     id="g47"
     transform="translate(0,75)" /><g
     id="g49"
     transform="translate(0,75)" /><g
     id="g51"
     transform="translate(0,75)" /><g
     id="g53"
     transform="translate(0,75)" /><g
     id="g55"
     transform="translate(0,75)" /><g
     id="g57"
     transform="translate(0,75)" /><g
     id="g59"
     transform="translate(0,75)" /><g
     id="g56"
     transform="matrix(2.2343879,0,0,2.2343879,1.2984828,-133.80353)"><g
       style="fill:#ff3300;fill-opacity:1;stroke:#000000;stroke-opacity:1"
       transform="matrix(0.89264024,0,0,0.89620652,-1.1893912,61.96087)"
       id="g5"><path
         inkscape:connector-curvature="0"
         id="path7"
         d="M 26.5,41 C 13.245,41 2.5,37.194 2.5,32.5 V 45 h 0.045 c 0.731,4.461 11.175,8 23.955,8 12.78,0 23.224,-3.539 23.955,-8 H 50.5 V 32.5 c 0,4.694 -10.745,8.5 -24,8.5 z"
         style="fill:#ff3300;fill-opacity:1;stroke:#000000;stroke-opacity:1" /><path
         inkscape:connector-curvature="0"
         id="path9"
         d="m 2.5,32 v 0.5 c 0,-0.168 0.018,-0.334 0.045,-0.5 z"
         style="fill:#ff3300;fill-opacity:1;stroke:#000000;stroke-opacity:1" /><path
         inkscape:connector-curvature="0"
         id="path11"
         d="m 50.455,32 c 0.027,0.166 0.045,0.332 0.045,0.5 V 32 Z"
         style="fill:#ff3300;fill-opacity:1;stroke:#000000;stroke-opacity:1" /></g><g
       style="fill:#73d216;stroke:#000000;stroke-opacity:1"
       transform="matrix(0.89264024,0,0,0.89620652,-1.1893912,61.96087)"
       id="g13"><path
         inkscape:connector-curvature="0"
         id="path15"
         d="M 26.5,29 C 13.245,29 2.5,25.194 2.5,20.5 V 33 h 0.045 c 0.731,4.461 11.175,8 23.955,8 12.78,0 23.224,-3.539 23.955,-8 H 50.5 V 20.5 c 0,4.694 -10.745,8.5 -24,8.5 z"
         style="fill:#73d216;stroke:#000000;stroke-opacity:1" /><path
         inkscape:connector-curvature="0"
         id="path17"
         d="m 2.5,20 v 0.5 c 0,-0.168 0.018,-0.334 0.045,-0.5 z"
         style="fill:#73d216;stroke:#000000;stroke-opacity:1" /><path
         inkscape:connector-curvature="0"
         id="path19"
         d="m 50.455,20 c 0.027,0.166 0.045,0.332 0.045,0.5 V 20 Z"
         style="fill:#73d216;stroke:#000000;stroke-opacity:1" /></g><ellipse
       id="ellipse21"
       ry="7.6177564"
       rx="21.423365"
       cy="69.578629"
       cx="22.465576"
       style="fill:#729fcf;stroke:#000000;stroke-width:0.89442158;stroke-opacity:1" /><g
       style="fill:#3465a4;fill-opacity:1"
       transform="matrix(0.77265321,0,0,0.74162355,-3.2153222,70.054545)"
       id="g23"><path
         inkscape:connector-curvature="0"
         id="path25"
         d="m 33.237288,9.6300025 c -15.313398,0 -27.7270132,-4.599317 -27.7270132,-10.27172821 V 14.463757 h 0.051988 c 0.8445188,5.390844 12.9103902,9.667509 27.6750252,9.667509 14.764635,0 26.830507,-4.276665 27.675025,-9.667509 h 0.05199 V -0.64172571 C 60.964301,5.0306855 48.550686,9.6300025 33.237288,9.6300025 Z"
         style="fill:#3465a4;fill-opacity:1;stroke:#000000;stroke-width:1.1815666;stroke-opacity:1" /><path
         inkscape:connector-curvature="0"
         id="path27"
         d="M 2.5,8 V 8.5 C 2.5,8.332 2.518,8.166 2.545,8 Z"
         style="fill:#3465a4;fill-opacity:1" /><path
         inkscape:connector-curvature="0"
         id="path29"
         d="M 50.455,8 C 50.482,8.166 50.5,8.332 50.5,8.5 V 8 Z"
         style="fill:#3465a4;fill-opacity:1" /></g></g><g
     id="g91"
     transform="translate(42.220339,10.309322)"><rect
       rx="4.9880791"
       ry="3.62988"
       style="display:inline;overflow:visible;visibility:visible;fill:#ffffff;fill-opacity:1;fill-rule:evenodd;stroke:none;stroke-width:1.96554148;stroke-linecap:round;stroke-linejoin:round;stroke-miterlimit:4;stroke-dasharray:none;stroke-dashoffset:0;stroke-opacity:1;marker:none;enable-background:accumulate"
       id="rect7391-4"
       width="50.696186"
       height="49.60836"
       x="33.04174"
       y="67.284805" /><g
       transform="matrix(1.941785,0,0,1.941785,-46.739427,-131.22925)"
       id="g76"><g
         style="display:inline"
         id="g3772"
         transform="matrix(1.6141779,0,0,1.6141779,12.736769,73.834226)"><rect
           ry="2.6149368"
           inkscape:export-ydpi="120"
           inkscape:export-xdpi="120"
           y="19"
           x="19"
           height="13"
           width="13"
           id="rect3563"
           style="display:inline;fill:#5a8c5a;fill-opacity:1;stroke:#555753;stroke-width:0;stroke-linejoin:round;stroke-miterlimit:4;stroke-dasharray:none;stroke-opacity:1"
           inkscape:export-filename="C:\Program Files\QGIS-Dev\themes\gis-0.1\mActionAddOgrLayer.png"
           rx="2.6149371" /><path
           inkscape:connector-curvature="0"
           style="display:inline;overflow:visible;visibility:visible;fill:#ffffff;fill-opacity:1;fill-rule:evenodd;stroke:#ffffff;stroke-width:2.5999999;stroke-linecap:round;stroke-linejoin:round;stroke-miterlimit:4;stroke-dasharray:none;stroke-dashoffset:0;stroke-opacity:1;marker:none;enable-background:accumulate"
           d="m 21.6,25.499999 h 7.8"
           id="path3807"
           sodipodi:nodetypes="cc" /><path
           inkscape:connector-curvature="0"
           id="path3809"
           d="M 25.5,29.399999 V 21.6"
           style="display:inline;overflow:visible;visibility:visible;fill:#ffffff;fill-opacity:1;fill-rule:evenodd;stroke:#ffffff;stroke-width:2.5999999;stroke-linecap:round;stroke-linejoin:round;stroke-miterlimit:4;stroke-dasharray:none;stroke-dashoffset:0;stroke-opacity:1;marker:none;enable-background:accumulate"
           sodipodi:nodetypes="cc" /><path
           inkscape:connector-curvature="0"
           sodipodi:nodetypes="ccsssc"
           id="path6992"
           d="m 20.3,25.499999 h 10.4 c 0,0 0,0 0,-2.6 C 30.7,20.3 30.05,20.3 25.5,20.3 c -4.55,0 -5.2,0 -5.2,2.599999 0,2.6 0,2.6 0,2.6 z"
           style="display:inline;opacity:0.3;fill:#fcffff;fill-rule:evenodd;stroke:none;enable-background:new" /></g></g></g></svg>
